!!!OTL: EIN TAEUBCHEN FLOG VOM HIMMELSZELT
!!!ARE: Europa, Mitteleuropa, Deutschland; Daenemark
!!!SCT: F0235
!!!YEM: Copyright 1995, estate of Helmut Schaffrath.
**kern
*ICvox
*Ivox
*M2/4
*k[b-]
*F:
{8f
=1
4a
8a
8g
=2
4f
4f
=3
4cc
8dd
8bn
=4
4cc
8r}
{8f
=5
4a
8a
8g
=6
4f
4f
=7
4cc
8dd
8bn
=8
4cc
8r}
{8cc
=9
4cc
8ff
8ee
=10
4dd
8a
8b-
=11
4cc
8cc
8b-
=12
4a
8r}
{8b-
=13
8cc
8cc
8a
8b-
=14
8cc
8cc
8b-
8a
=15
2g
=16
4f
8r}
==
!!!AGN: Jugend - Lied, Moral
!!!ONB: ESAC (Essen Associative Code) Database: FINK
!!!AMT: simple duple
!!!AIN: vox
!!!EED: Helmut Schaffrath
!!!EEV: 1.0
*-
